X:1
T:O Sinner, Come Home
T:O Sinner, Come Home
T:John Robson Sweney
T:Enoch Stubbs, 1880
T:Public Domain Courtesy of the Cyber Hymnal™
T:Public Domain Courtesy of the Cyber Hymnal™
C:John Robson Sweney
Z:Public Domain
Z:Courtesy of the Cyber Hymnal™
%%score ( 1 2 ) ( 3 4 )
L:1/8
Q:1/4=93
M:4/4
K:Bb
V:1 treble 
V:2 treble 
V:3 bass 
V:4 bass 
V:1
 [DF] | [DF]2 [DF][DF] [F-B] [FB]2 [FB] | [Fc]2 [FB][Fc] [F-d] [Fd]2 [Fd] | %3
w: 1.~O|sin- ner, come home, * the|ban- quet is wait- Re- turn|
w: 2.~Thy|sins have been great, * thy|wan- der- ings f- But great-|
w: 3.~He|will not up- braid * thee|with sins of the The Lord|
 [Ge]2 [EG][FA] [GB]2 [FA][EG] | [DF]2 [FB][Fd] [F-d] [Fc]2 [EF] | [DF]2 [DF][DF] [FB]2 [DB][FB] | %6
w: to thy Fa- ther, sin’s fol-|ly for- sak- ing; Fa- ther|still loves thee, and waits to|
w: er His mer- cy; then fol-|low yon st- ar, leads thee|to Him, whom the an- gels|
w: will for- give; He is true|to the la- st; law of|His mer- cy can not be|
 [Fc]2 [FB][Fc] [Fd]3 ([Fd]/[_Ad]/) | [Ge]2 [EG][FA] [GB]2 [FA][EG] | ([DF][Fd])[Fd][Ec] [DB]3 || %9
w: em- brace His pen- i- *|tent child, when re- turn- ing|through * grace. * *|
w: a- dore; And~be hap- py *|at home, thence to wan- der|no * more. Then, sin-|
w: re- pealed, It stand- eth *|for- ev- er, with blood it|is * sealed. * *|
"^Refrain" [DB] | ([FA][Ec])[Ec][Ec] [DB]3 F | [Fe]>[Fe] [Fe]2 [Fe] [Fd]2 ([Fd]/[Fd]/) | %12
w: |||
w: ner,|come * home; the feast is|all rea- dy; Pre- pared for *|
w: |||
 [^Fd]2 [Fd]>[Fc] [GB]3 [DB] | [=Ec]2 [Ec]>[EG] [GB] [FA]2 | [EF] [DF]2 [DF] [DF] [FB]2 [DB][FB] | %15
w: |||
w: the blind, the poor and|the nee- dy; The worst|are in- vit- ed, all wel- come|
w: |||
 [Fc]2 [FB][Fc] [Fd]3 ([Fd]/[_Ad]/) | [Ge]2 [EG][FA] [GB]2 [FA][EG] | ([DF][Fd])[Fd][Ec] [DB]3 |] %18
w: |||
w: will be; Re- turn, then, *|there’s room at this ta- ble|for * thee. * *|
w: |||
V:2
 x | x8 | x8 | x8 | x8 | x8 | x8 | x8 | x7 || x | x7 F | x8 | x8 | x7 | x9 | x8 | x8 | x7 |] %18
V:3
 [B,,B,] | [B,,B,]2 [B,,B,][B,,B,] [D,B,-] [D,B,]2 [D,B,] | [F,A,]2 [D,B,][F,A,] B, B,2 [B,,B,] | %3
 [E,B,]2 [E,B,][E,B,] [E,E]2 [E,B,][E,B,] | [B,,B,]2 [D,B,][B,,B,] [F,-B,] [F,A,]2 [F,A,] | %5
 [B,,B,]2 [B,,B,][B,,B,] [D,B,]2 [B,,B,][D,B,] | [F,A,]2 [D,B,][F,A,] B,3 [B,,B,]/[B,,B,]/ | %7
 [E,B,]2 [E,B,][E,B,] [E,E]2 [E,B,][E,B,] | [F,B,]2 [F,B,][F,A,] [B,,B,]3 || [B,,B,] | %10
 (CA,)[F,A,][F,A,] B,3 [B,D] | [A,C]>[A,C] [A,C]2 [B,C] B,2 ([B,,B,]/[B,,B,]/) | %12
 [D,A,]2 [D,A,]>[D,D] [G,D]3 G, | [C,G,]2 [C,G,]>[C,C] [F,C] [F,C]2 | %14
 [F,A,] [B,,B,]2 [B,,B,] [B,,B,] [D,B,]2 [B,,B,][D,B,] | %15
 [F,A,]2 [D,B,][F,A,] B,3 ([B,,B,]/[B,,B,]/) | [E,B,]2 [E,B,][E,B,] [E,E]2 [E,B,][E,B,] | %17
 [F,B,]2 [F,B,][F,A,] [B,,B,]3 |] %18
V:4
 x | x8 | x4 B,- B,2 x | x8 | x8 | x8 | x4 B,3 x | x8 | x7 || x | F,2 x B,3 x2 | x5 B,2 x | x7 G, | %13
 x7 | x9 | x4 B,3 x | x8 | x7 |] %18

